!!!COM: Bartók, Béla
!!!OTL: Piano Concerto No. 1
!!!OMV: I: Allegro moderato
!!!example: 338
!!!work: Bar-32
**kern	**dynam	**kern	**dynam	**kern	**dynam	**kern	**dynam	**kern	**dynam	**kern	**kern	**dynam	**kern	**dynam	**kern	**dynam	**kern	**dynam	**kern	**dynam	**kern	**dynam	**kern	**dynam	**kern	**dynam	**kern	**dynam	**kern	**dynam	**kern	**dynam	**kern	**dynam	**kern	**dynam	**kern	**dynam	**kern	**dynam	**kern	**dynam
*part21	*part21	*part20	*part20	*part19	*part19	*part18	*part18	*part17	*part17	*part16	*part16	*part16	*part15	*part15	*part14	*part14	*part13	*part13	*part12	*part12	*part11	*part11	*part10	*part10	*part9	*part9	*part8	*part8	*part7	*part7	*part6	*part6	*part5	*part5	*part4	*part4	*part3	*part3	*part2	*part2	*part1	*part1
*staff22	*	*staff21	*	*staff20	*	*staff19	*	*staff18	*	*staff17	*staff16	*	*staff15	*	*staff14	*	*staff13	*	*staff12	*	*staff11	*	*staff10	*	*staff9	*	*staff8	*	*staff7	*	*staff6	*	*staff5	*	*staff4	*	*staff3	*	*staff2	*	*staff1	*
*I"Contrabass	*	*I"Violoncello	*	*I"Viola	*	*I"Violin II	*	*I"Violin I	*	*I"Piano	*	*	*I"Bass Drum	*	*I"Tamb. picc. c.c.	*	*I"Tamb. picc. s.c.	*	*I"Timpani	*	*I"Trombone	*	*I"Trumpet in C	*	*I"Horn in F	*	*I"Horn in F	*	*I"Bassoon	*	*I"Bassoon	*	*I"Clarinet in Bb	*	*I"Clarinet in Bb	*	*I"Cor Anglais	*	*I"Oboe	*	*I"Flute	*
*I'Cb.	*	*I'Vc.	*	*I'Vla.	*	*I'Vln. II	*	*I'Vln. I	*	*I'Pno.	*	*	*I'B. D.	*	*I'Perc.	*	*I'Perc.	*	*I'Timp.	*	*I'Tbn.	*	*I'C Tpt.	*	*I'Hn.	*	*I'Hn.	*	*I'Bsn.	*	*I'Bsn.	*	*I'Cl.	*	*I'Cl.	*	*I'C. A.	*	*I'Ob.	*	*I'Fl.	*
*clefF4	*	*clefF4	*	*clefC3	*	*clefG2	*	*clefG2	*	*clefF4	*clefG2	*	*clefpercussion0	*	*clefpercussion0	*	*clefpercussion0	*	*clefF4	*	*clefF4	*	*clefG2	*	*clefG2	*	*clefG2	*	*clefF4	*	*clefF4	*	*clefG2	*	*clefG2	*	*clefG2	*	*clefG2	*	*clefG2	*
*k[]	*	*k[]	*	*k[]	*	*k[]	*	*k[]	*	*k[]	*k[]	*	*	*	*	*	*	*	*	*	*k[]	*	*k[]	*	*	*	*	*	*k[]	*	*k[]	*	*k[]	*	*k[]	*	*k[]	*	*k[]	*	*k[]	*
*	*	*	*	*	*	*	*	*	*	*	*	*	*	*	*	*	*	*	*	*	*	*	*	*	*	*	*	*	*	*	*	*	*	*	*	*	*	*	*	*	*	*
*M2/4	*	*M2/4	*	*M2/4	*	*M2/4	*	*M2/4	*	*M2/4	*M2/4	*	*M2/4	*	*M2/4	*	*M2/4	*	*M2/4	*	*M2/4	*	*M2/4	*	*M2/4	*	*M2/4	*	*M2/4	*	*M2/4	*	*M2/4	*	*M2/4	*	*M2/4	*	*M2/4	*	*M2/4	*
*MM121	*	*MM121	*	*MM121	*	*MM121	*	*MM121	*	*MM121	*MM121	*	*MM121	*	*MM121	*	*MM121	*	*MM121	*	*MM121	*	*MM121	*	*MM121	*	*MM121	*	*MM121	*	*MM121	*	*MM121	*	*MM121	*	*MM121	*	*MM121	*	*MM121	*
=475	=475	=475	=475	=475	=475	=475	=475	=475	=475	=475	=475	=475	=475	=475	=475	=475	=475	=475	=475	=475	=475	=475	=475	=475	=475	=475	=475	=475	=475	=475	=475	=475	=475	=475	=475	=475	=475	=475	=475	=475	=475	=475
8DDL	.	8DL	.	8F#XL	.	8d#XL	.	8A#XL 8e	.	8cL	4f#X^^	.	2r	.	2r	.	2r	.	2r	.	2r	.	2r	.	2r	.	2r	.	2r	.	8A#X'	.	2r	.	8D'L	.	2r	.	2r	.	2r	.
8DDJ	.	8DJ	.	8F#J	.	8d#J	.	8A#J 8e	.	8EJ	.	.	.	.	.	.	.	.	.	.	.	.	.	.	.	.	.	.	.	.	8r	.	.	.	8B-X'J	.	.	.	.	.	.	.
8DDL	.	8DL	.	8F#L	.	8d#L	.	8A#L 8e	.	4F#X^^	8ddL	.	.	.	.	.	.	.	.	.	.	.	.	.	.	.	.	.	.	.	4r	.	.	.	8e'L	.	.	.	.	.	.	.
8DDJ	.	8DJ	.	8F#J	.	8d#J	.	8A#J 8e	.	.	8ccJ	.	.	.	.	.	.	.	.	.	.	.	.	.	.	.	.	.	.	.	.	.	.	.	8F#X'J	.	.	.	.	.	.	.
=476	=476	=476	=476	=476	=476	=476	=476	=476	=476	=476	=476	=476	=476	=476	=476	=476	=476	=476	=476	=476	=476	=476	=476	=476	=476	=476	=476	=476	=476	=476	=476	=476	=476	=476	=476	=476	=476	=476	=476	=476	=476	=476
8DDL	.	8DL	.	8F#XL	.	8d#XL	.	8A#XL 8e	.	8dL	8e^^	.	2r	.	2r	.	2r	.	2r	.	2r	.	2r	.	2r	.	2r	.	4r	.	2r	.	4r	.	8B-X'L	.	2r	.	2r	.	2r	.
8DDJ	.	8DJ	.	8F#J	.	8d#J	.	8A#J 8e	.	8cJ	4f#X	.	.	.	.	.	.	.	.	.	.	.	.	.	.	.	.	.	.	.	.	.	.	.	8e-X'J	.	.	.	.	.	.	.
8DDL	.	8DL	.	8F#L	.	8d#L	.	8A#L 8e	.	8E^^L	.	.	.	.	.	.	.	.	.	.	.	.	.	.	.	.	.	.	8r	.	.	.	8r	.	8en'	.	.	.	.	.	.	.
8DDJ	.	8DJ	.	8F#J	.	8d#J	.	8A#J 8e	.	[8F#XJ	8dd 8ddd	mf	.	.	.	.	.	.	.	.	.	.	.	.	.	.	.	.	8D	mf	.	.	[8D	mf	8r	.	.	.	.	.	.	.
=477	=477	=477	=477	=477	=477	=477	=477	=477	=477	=477	=477	=477	=477	=477	=477	=477	=477	=477	=477	=477	=477	=477	=477	=477	=477	=477	=477	=477	=477	=477	=477	=477	=477	=477	=477	=477	=477	=477	=477	=477	=477	=477
!	!	!	!	!	!	!	!	!	!	!	!LO:TX:b:t=cresc.	!	!	!	!	!	!	!	!	!	!	!	!	!	!	!	!	!	!	!	!	!	!	!	!	!	!	!	!	!	!	!
2r	.	2r	.	8F#XL	.	8GL 8d#X	.	8cL 8e	.	8F#L]	8ccL 8ccc	.	2r	.	2r	.	8r	.	8DL	p	2r	.	2r	.	2r	.	2r	.	4E~	.	4r	.	4.D]	.	2r	.	2r	.	2r	.	2r	.
.	.	.	.	8F#J	.	8GJ 8d#	.	8cJ 8e	.	8dJ	8eJ 8ee	mf	.	.	.	.	8x	p	8DJ	.	.	.	.	.	.	.	.	.	.	.	.	.	.	.	.	.	.	.	.	.	.	.
.	.	.	.	8F#L	.	8GL 8d#	.	8cL 8e	.	8cL	4f#X 4ff#X	.	.	.	.	.	8r	.	8DL	.	.	.	.	.	.	.	.	.	4F#X~	.	8r	.	.	.	.	.	.	.	.	.	.	.
.	.	.	.	8F#J	.	8GJ 8d#	.	8cJ 8e	.	8EJ	.	.	.	.	.	.	8x	.	8DJ	.	.	.	.	.	.	.	.	.	.	.	8DD	mf	8r	.	.	.	.	.	.	.	.	.
=478	=478	=478	=478	=478	=478	=478	=478	=478	=478	=478	=478	=478	=478	=478	=478	=478	=478	=478	=478	=478	=478	=478	=478	=478	=478	=478	=478	=478	=478	=478	=478	=478	=478	=478	=478	=478	=478	=478	=478	=478	=478	=478
2r	.	2r	.	8F#XL	.	8GL 8d#X	.	8cL 8e	.	4F#X	8ddL 8ddd	.	2r	.	2r	.	8r	.	8DL	.	2r	.	2r	.	2r	.	2r	.	8G^	.	4EE~	.	4r	.	2r	.	2r	.	4r	.	2r	.
.	.	.	.	8F#J	.	8GJ 8d#	.	8cJ 8e	.	.	8ccJ 8ccc	.	.	.	.	.	8x	.	8DJ	.	.	.	.	.	.	.	.	.	4A~	.	.	.	.	.	.	.	.	.	.	.	.	.
.	.	.	.	8F#L	.	8GL 8d#	.	8cL 8e	.	8dL	8eL 8ee	.	.	.	.	.	8r	.	8DL	.	.	.	.	.	.	.	.	.	.	.	4FF#X~	.	8r	.	.	.	.	.	8r	.	.	.
.	.	.	.	8F#J	.	8GJ 8d#	.	8cJ 8e	.	8cJ	[8f#XJ [8ff#X	.	.	.	.	.	8x	.	8DJ	.	.	.	.	.	.	.	.	.	8B	.	.	.	8d	mf	.	.	.	.	8B	mf	.	.
=479	=479	=479	=479	=479	=479	=479	=479	=479	=479	=479	=479	=479	=479	=479	=479	=479	=479	=479	=479	=479	=479	=479	=479	=479	=479	=479	=479	=479	=479	=479	=479	=479	=479	=479	=479	=479	=479	=479	=479	=479	=479	=479
2r	.	2r	.	8F#XL	.	8GL 8d#X	.	8cL 8e	.	8E	8f#L] 8ff#]	.	2r	.	2r	.	8r	.	8DL	.	2r	.	2r	.	2r	.	2r	.	4c	.	8GG^	.	4e~	.	2r	.	2r	.	4c~	.	2r	.
.	.	.	.	8F#J	.	8GJ 8d#	.	8cJ 8e	.	4F#X	8ddJ 8ddd	.	.	.	.	.	8x	.	8DJ	.	.	.	.	.	.	.	.	.	.	.	4AA~	.	.	.	.	.	.	.	.	.	.	.
.	.	.	.	8F#L	.	8GL 8d#	.	8cL 8e	.	.	8ccL 8ccc	.	.	.	.	.	8r	.	8DL	.	.	.	.	.	.	.	.	.	8r	.	.	.	4f#X~	.	.	.	.	.	4d~	.	.	.
.	.	.	.	8F#J	.	8GJ 8d#	.	8cJ 8e	.	8d	8eJ 8ee	.	.	.	.	.	8x	.	8DJ	.	.	.	.	.	.	.	.	.	8CC	.	8BB	.	.	.	.	.	.	.	.	.	.	.
=480	=480	=480	=480	=480	=480	=480	=480	=480	=480	=480	=480	=480	=480	=480	=480	=480	=480	=480	=480	=480	=480	=480	=480	=480	=480	=480	=480	=480	=480	=480	=480	=480	=480	=480	=480	=480	=480	=480	=480	=480	=480	=480
!	!	!	!	!	!	!	!	!	!	!	!	!	!	!	!	!	!	!	!	!	!	!	!	!	!	!	!	!	!LO:TX:b:t=cresc.	!	!LO:TX:b:t=cresc.	!	!	!	!	!	!	!	!	!	!	!
2r	.	2r	.	8F#XL	.	8GL 8d#X	.	8cL 8e	.	8cL	4f#X 4ff#X	.	2r	.	2r	.	8r	.	8DL	.	2r	.	2r	.	2r	.	2r	.	4DD~	.	4C~	.	8g^	.	4r	.	4r	.	8e^	.	2r	.
.	.	.	.	8F#J	.	8GJ 8d#	.	8cJ 8e	.	8EJ	.	.	.	.	.	.	8x	.	8DJ	.	.	.	.	.	.	.	.	.	.	.	.	.	4a~	.	.	.	.	.	4f#X	.	.	.
.	.	.	.	8F#L	.	8GL 8d#	.	8cL 8e	.	4F#X	8ddL 8ddd	.	.	.	.	.	8r	.	8DL	.	.	.	.	.	.	.	.	.	4EE~	.	4D~	.	.	.	8r	.	8r	.	.	.	.	.
.	.	.	.	8F#J	.	8GJ 8d#	.	8cJ 8e	.	.	8ccJ 8ccc	.	.	.	.	.	8x	.	8DJ	.	.	.	.	.	.	.	.	.	.	.	.	.	8b	.	8g	mf	8B	mf	8g	.	.	.
=481	=481	=481	=481	=481	=481	=481	=481	=481	=481	=481	=481	=481	=481	=481	=481	=481	=481	=481	=481	=481	=481	=481	=481	=481	=481	=481	=481	=481	=481	=481	=481	=481	=481	=481	=481	=481	=481	=481	=481	=481	=481	=481
!	!	!	!	!LO:TX:b:t=cresc.	!	!LO:TX:b:t=cresc.	!	!LO:TX:b:t=cresc.`	!	!	!	!	!	!	!	!	!	!	!LO:TX:b:t=cresc.	!	!	!	!	!	!	!	!	!	!	!	!	!	!LO:TX:b:t=cresc.	!	!LO:TX:b:t=cresc.	!	!LO:TX:b:t=cresc.	!	!LO:TX:b:t=cresc.	!	!	!
2r	.	2r	.	8F#XL	.	8GL 8d#X	.	8cL 8e	.	8DL 8d	8e 8ee	.	2r	.	2r	.	8r	.	8DL	.	2r	.	2r	.	4r	.	8r	.	8FF#X^	.	8E^	.	4cc~	.	4a~	.	4c~	.	4a~	.	2r	.
!	!	!	!	!	!	!	!	!	!	!	!	!	!	!	!	!	!LO:TX:b:t=cresc.	!	!	!	!	!	!	!	!	!	!LO:TX:a:t=con sord.	!	!	!	!	!	!	!	!	!	!	!	!	!	!	!
.	.	.	.	8F#J	.	8GJ 8d#	.	8cJ 8e	.	8CJ 8c	4f#X 4ff#X	.	.	.	.	.	8x	.	8DJ	.	.	.	.	.	.	.	8e	p	4GG~	.	4F#X~	.	.	.	.	.	.	.	.	.	.	.
.	.	.	.	8F#L	.	8GL 8d#	.	8cL 8e	.	8EEL 8E	.	.	.	.	.	.	8r	.	8DL	.	.	.	.	.	8r	.	4d~^	.	.	.	.	.	4dd~	.	4b~	.	4d~	.	4b~	.	.	.
*	*	*	*	*	*	*	*	*	*	*	*	*	*	*	*	*	*	*	*	*	*	*	*	*	*clefF4	*	*	*	*	*	*	*	*	*	*	*	*	*	*	*	*	*
.	.	.	.	8F#J	.	8GJ 8d#	.	8cJ 8e	.	[8FF#XJ [8F#X	8d 8dd	.	.	.	.	.	8x	.	8DJ	.	.	.	.	.	8AAA	f	.	.	8AA	.	8G	.	.	.	.	.	.	.	.	.	.	.
=482	=482	=482	=482	=482	=482	=482	=482	=482	=482	=482	=482	=482	=482	=482	=482	=482	=482	=482	=482	=482	=482	=482	=482	=482	=482	=482	=482	=482	=482	=482	=482	=482	=482	=482	=482	=482	=482	=482	=482	=482	=482	=482
!	!	!	!	!	!	!	!	!	!	!	!	!	!	!	!	!	!	!	!	!	!	!	!	!	!	!	!	!	!LO:TX:b:t=cresc.	!	!LO:TX:b:t=cresc.	!	!	!	!	!	!	!	!	!	!	!
2r	.	2r	.	8F#XL	.	8GL 8d#X	.	8cL 8e	.	8FF#L] 8F#]	8cL 8cc	.	2r	.	2r	.	8r	.	8DL	.	8r	.	2r	.	4BBB~	.	4cc~	.	4BB~	.	4A~	.	8ee^	.	8cc^	.	8e^	.	8cc^	.	2r	.
!	!	!	!	!	!	!	!	!	!	!	!	!	!	!	!	!	!	!	!	!	!LO:TX:a:t=con sord.	!	!	!	!	!	!	!	!	!	!	!	!	!	!	!	!	!	!	!	!	!
.	.	.	.	8F#J	.	8GJ 8d#	.	8cJ 8e	.	8DJ	8EJ 8e	.	.	.	.	.	8x	.	8DJ	.	8d	p	.	.	.	.	.	.	.	.	.	.	4ff#X~	.	4dd~	.	4f#X~	.	4dd~	.	.	.
.	.	.	.	8F#L	.	8GL 8d#	.	8cL 8e	.	8CL	8F#XL 8f#X	.	.	.	.	.	8r	.	8DL	.	4c~	.	.	.	4CC~	.	8b^^L	.	4C~	.	4B~	.	.	.	.	.	.	.	.	.	.	.
.	.	.	.	8F#J	.	8GJ 8d#	.	8cJ 8e	.	8EEJ	8dJ 8dd	.	.	.	.	.	8x	.	8DJ	.	.	.	.	.	.	.	[8a~J	.	.	.	.	.	8gg	.	8ee	.	8g	.	8ee	.	.	.
=483	=483	=483	=483	=483	=483	=483	=483	=483	=483	=483	=483	=483	=483	=483	=483	=483	=483	=483	=483	=483	=483	=483	=483	=483	=483	=483	=483	=483	=483	=483	=483	=483	=483	=483	=483	=483	=483	=483	=483	=483	=483	=483
!	!	!	!	!	!	!	!	!	!	!	!	!	!	!	!	!	!	!	!	!	!	!	!	!	!	!	!	!	!	!	!	!	!LO:TX:b:t=cresc.	!	!	!	!	!	!	!	!	!
2r	.	2r	.	8F#XL 8c	.	8GL 8d#X	.	8eL 8g	.	12FF#XL	12cL 12cc	.	2r	.	2r	.	8r	.	8DL	.	4B~	.	2r	.	4DD~	.	8aL]	.	4D~	.	4c~	.	4cc~	.	8ff#X^	.	8a^	.	8a^	.	8ff#X^	f
.	.	.	.	.	.	.	.	.	.	12GG	12B 12b	.	.	.	.	.	.	.	.	.	.	.	.	.	.	.	.	.	.	.	.	.	.	.	.	.	.	.	.	.	.	.
!	!	!	!	!	!	!	!	!	!	!	!	!	!	!	!	!	!	!	!	!	!	!	!	!	!	!	!	!	!	!	!	!	!	!	!	!	!	!	!	!	!LO:TX:b:t=cresc.	!
.	.	.	.	8F#J 8c	.	8GJ 8d#	.	8eJ 8g	.	.	.	.	.	.	.	.	8x	.	8DJ	.	.	.	.	.	.	.	8gJ	.	.	.	.	.	.	.	4gg~	.	4b~	.	4b~	.	4gg~	.
.	.	.	.	.	.	.	.	.	.	12AAJ	12AJ 12a	.	.	.	.	.	.	.	.	.	.	.	.	.	.	.	.	.	.	.	.	.	.	.	.	.	.	.	.	.	.	.
!	!	!	!	!	!	!	!	!	!	!	!	!	!	!	!	!	!	!	!	!	!LO:TX:b:t=cresc.	!	!	!	!LO:TX:b:t=cresc. molto	!	!LO:TX:b:t=cresc. molto	!	!	!	!	!	!	!	!	!	!	!	!	!	!	!
.	.	.	.	8F#L 8c	.	8GL 8d#	.	8eL 8g	.	12GGL 12G	12BL 12b	.	.	.	.	.	8r	.	8DL	.	4A~	.	.	.	4EE~	.	8f#X^^L	.	4E~	.	4d~	.	4dd~	.	.	.	.	.	.	.	.	.
.	.	.	.	.	.	.	.	.	.	12FF# 12F#X	12c 12cc	.	.	.	.	.	.	.	.	.	.	.	.	.	.	.	.	.	.	.	.	.	.	.	.	.	.	.	.	.	.	.
.	.	.	.	8F#J 8c	.	8GJ 8d#	.	8eJ 8g	.	.	.	.	.	.	.	.	8x	.	8DJ	.	.	.	.	.	.	.	[8e~J	.	.	.	.	.	.	.	8aa	.	8cc	.	8cc	.	8aa	.
.	.	.	.	.	.	.	.	.	.	12EEJ 12E	12dJ 12dd	.	.	.	.	.	.	.	.	.	.	.	.	.	.	.	.	.	.	.	.	.	.	.	.	.	.	.	.	.	.	.
*	*	*	*	*	*	*	*	*	*	*	*	*	*	*	*	*	*	*	*	*	*	*	*	*	*clefG2	*	*	*	*	*	*	*	*	*	*	*	*	*	*	*	*	*
=484	=484	=484	=484	=484	=484	=484	=484	=484	=484	=484	=484	=484	=484	=484	=484	=484	=484	=484	=484	=484	=484	=484	=484	=484	=484	=484	=484	=484	=484	=484	=484	=484	=484	=484	=484	=484	=484	=484	=484	=484	=484	=484
8F#XL	p	8F#XL	p	8GL 8d#X	.	8cL 8e	.	8gL 8cc	.	12DDL 12D	12eL 12ee	.	2r	.	2r	.	8r	.	8DL	.	4.G	.	2r	.	8F#X^	.	8eL]	.	8F#X^	.	4e~	.	4ee~	.	8bb^	.	8dd^	.	8dd^	.	8bb^	.
.	.	.	.	.	.	.	.	.	.	12CC 12C	12f#X 12ff#X	.	.	.	.	.	.	.	.	.	.	.	.	.	.	.	.	.	.	.	.	.	.	.	.	.	.	.	.	.	.	.
!LO:TX:b:t=cresc. molto	!	!LO:TX:b:t=cresc. molto	!	!	!	!	!	!	!	!	!	!	!	!	!	!	!	!	!	!	!	!	!	!	!	!	!	!	!	!	!	!	!	!	!	!	!	!	!	!	!	!
8F#J	.	8F#J	.	8GJ 8d#	.	8cJ 8e	.	8gJ 8cc	.	.	.	.	.	.	.	.	8x	.	8DJ	.	.	.	.	.	4G~	.	8dJ	.	4G~	.	.	.	.	.	4ccc~	.	4ee~	.	4ee~	.	4ccc~	.
.	.	.	.	.	.	.	.	.	.	12BBBJ 12BB	12gJ 12gg	.	.	.	.	.	.	.	.	.	.	.	.	.	.	.	.	.	.	.	.	.	.	.	.	.	.	.	.	.	.	.
8F#L	.	8F#L	.	8GL 8d#	.	8cL 8e	.	8gL 8cc	.	12AAAL 12AA	16aLL 16aa	.	.	.	.	.	8r	.	8DL	.	.	.	.	.	.	.	4c~	.	.	.	4f#X~	.	4ff#X~	.	.	.	.	.	.	.	.	.
.	.	.	.	.	.	.	.	.	.	.	16b 16bb	.	.	.	.	.	.	.	.	.	.	.	.	.	.	.	.	.	.	.	.	.	.	.	.	.	.	.	.	.	.	.
.	.	.	.	.	.	.	.	.	.	12GGG 12GG	.	.	.	.	.	.	.	.	.	.	.	.	.	.	.	.	.	.	.	.	.	.	.	.	.	.	.	.	.	.	.	.
8F#J	.	8F#J	.	8GJ 8d#	.	8cJ 8e	.	8gJ 8cc	.	.	16cc 16ccc	.	.	.	.	.	8x	.	8DJ	.	8F#X	.	.	.	8A	.	.	.	8A	.	.	.	.	.	8ddd	.	8ff#X	.	8ff#X	.	8ddd	.
.	.	.	.	.	.	.	.	.	.	12FFF#XJ 12FF#X	.	.	.	.	.	.	.	.	.	.	.	.	.	.	.	.	.	.	.	.	.	.	.	.	.	.	.	.	.	.	.	.
.	.	.	.	.	.	.	.	.	.	.	16ddJJ 16ddd	.	.	.	.	.	.	.	.	.	.	.	.	.	.	.	.	.	.	.	.	.	.	.	.	.	.	.	.	.	.	.
=485	=485	=485	=485	=485	=485	=485	=485	=485	=485	=485	=485	=485	=485	=485	=485	=485	=485	=485	=485	=485	=485	=485	=485	=485	=485	=485	=485	=485	=485	=485	=485	=485	=485	=485	=485	=485	=485	=485	=485	=485	=485	=485
4r	.	4r	.	4r	.	4r	.	4r	.	4EEE^^ 4FFF#X 4BBB 4EE	4ee^^ 4ff#X 4bb 4eee	ff	4r	.	4r	.	4x	f	4D	.	4r	.	4r	.	4r	.	4r	.	4r	.	4r	.	4r	.	4r	.	4r	.	4r	.	4r	.
!	!	!	!	!	!	!	!	!	!	!	!	!	!	!	!	!	!	!	!	!	!	!	!	!	!LO:TX:a:t=senza sord.	!	!LO:TX:a:t=senza sord.	!	!	!	!	!	!	!	!	!	!	!	!	!	!	!
8EEE 8EE	ff	8E 8B 8f#X	ff	8F#X 8e	ff	8f#X 8ee 8bb	ff	8b 8ff#X 8eee	ff	4r	4r	.	8x	ff	4x	ff	4x	ff	4r	.	8E 8F#X 8B	ff	8e 8ee	ff	8B 8f#X	ff	8f#X 8b	ff	8EE	ff	8EE	ff	8ff#X	ff	8eee	ff	8b	ff	8bb	ff	8bb 8eee	ff
8r	.	8r	.	8r	.	8r	.	8r	.	.	.	.	8r	.	.	.	.	.	.	.	8r	.	8r	.	8r	.	8r	.	8r	.	8r	.	8r	.	8r	.	8r	.	8r	.	8r	.
=	=	=	=	=	=	=	=	=	=	=	=	=	=	=	=	=	=	=	=	=	=	=	=	=	=	=	=	=	=	=	=	=	=	=	=	=	=	=	=	=	=	=
*-	*-	*-	*-	*-	*-	*-	*-	*-	*-	*-	*-	*-	*-	*-	*-	*-	*-	*-	*-	*-	*-	*-	*-	*-	*-	*-	*-	*-	*-	*-	*-	*-	*-	*-	*-	*-	*-	*-	*-	*-	*-	*-
!!!system-decoration: [(s1,s2,s3,s4,s5,s6,s7)][(s8,s9,s10,s11)][(s12)][(s13,s14,s15)]{(s16,s17)}[(s18,s19,s20,s21,s22)]
!!!CDT: 1881/03/25-1945/09/26
!!!CBL: Sînnicolau Mare (Nagyszentmiklós), Romania (Hungary)
!!!CDL: New York, United States
!!!CNT: Hungarian
!!!AGN: Orchestral; Concerto
!!!MCN: Furtwängler, Wilhelm
!!!MDT: 1927/07/01
!!!MGN: unknown
!!!MLC: Frankfurt, Germany
!!!MPD: 1927
!!!MPN: Bartók, Béla
!!!ODT: 1926
!!!PDT: 1927
!!!excerpt-start-measure: 475
!!!excerpt-end-measure: 485
!!!excerpt-start-time: 9:00
!!!excerpt-end-time: 9:16
!!!EEV: 2020/01/27
!!!ONB: Converted from MusicXML on 2020/01/27
